!!!OTL: Die drei Grafen. / (Ballade.)
!!!ARE: Europa, Mitteleuropa, Deutschland
!!!SCT: A0036
!!!TXL: @@GMH
!!!YEM: Copyright 1995, estate of Helmut Schaffrath.
**kern	**text
*M4/2	*
*met(c|)	*
*clefC3	*
*k[]	*
*G:ion	*
!LO:TX:a:t=jon. mit äol. Schluß.	!
2ryy	.
{2G	Jch
=1	=1
2G	ſtund
2G	auf
2A	ei-
2B	-nem
=2	=2
1c	Ber-
2e}	-ge,
{2d	ich
=3	=3
2c	ſah
2G	in
2A	tief-
2B	-fe
=4	=4
1c	tal..
2r}	.
!LO:TX:a:t=NB.	!
{2c	[ein
=5	=5
2e	Schiff-
2g	-lein
2a	ſah
2a	ich
=6	=6
(4g	fa-
!LO:SIC:o:4f:v	!
4f#	.
4e	.
4d)	.
2c}	-ren,
{2d	da-
=7	=7
2e	-rinn
2d	drei
2c/	Gra-
2B	-fen
=8	=8
1A/ll}	warn.]
==	==
!!!GTL: Balladen und Romanzen (erzählende Volkslieder)
!!!AGN: Romanze, Ballade, Lied
!! Melodie bei Schmeltzel, 1544, Quodlibet 7. Ab dritte Zeile von Boehme
!!    ergaenzt!
!!!ONB: ESAC (Essen Associative Code) Database: ALTDEU
!!!AMT: simple quadruple
!!!AIN: vox
!!!EED: Helmut Schaffrath
!!!EEV: 1.0
!!!AMD: Ionian
!!!RDF**kern: l = terminal long
!!!URL-scan: https://rosdok.uni-rostock.de/mcrviewer/recordIdentifier/rosdok_ppn738218359/iview2/phys_0184.iview2?x=-2091.770685579196&y=362.41040190157946&scale=0.2411630558722919&rotation=0&layout=singlePageLayout&logicalDiv=log_0007
!!!ENC: Anna Maria Matuszewska
!!!EEV: 2024/19/02
*-	*-
